X: 13385
T: Fleur De Mandragore
R: reel
M: 4/4
K: Amajor
AAAA GABc|Aeed cAAB|AAAB GAcA|BBBc BA G2|
AAAA GABc|Aeed cAAB|A2 EA GA cA|B2 Bc BA AB:|
|:A2 ce a3b|a2 ga b2 ba|g2 ec dfed|cABc defg|
agfe aagb|a2 ga b2 ba|g2 ec dfed|cABc ABBd|cA AB:|

